icons/mobile/24/svg/cookies-slash-24.svg

<svg width="24" height="24" viewBox="0 0 24 24" fill="none" xmlns="http://www.w3.org/2000/svg">
<path d="M8.49993 12.25C9.32836 12.25 9.99993 12.9216 9.99993 13.75C9.99993 14.5784 9.32836 15.25 8.49993 15.25C7.67151 15.25 6.99993 14.5784 6.99993 13.75C6.99993 12.9216 7.67151 12.25 8.49993 12.25Z" fill="black"/>
<path fill-rule="evenodd" clip-rule="evenodd" d="M2.25579 2.25586C2.5975 1.91415 3.15237 1.91415 3.49407 2.25586L21.7441 20.5059C22.0858 20.8476 22.0858 21.4024 21.7441 21.7441C21.4024 22.0858 20.8475 22.0858 20.5058 21.7441L18.4091 19.6475C16.6451 21.1277 14.3906 22 12.0029 22C6.48887 22 2.00288 17.514 2.00286 12C2.00286 9.55846 2.88486 7.32071 4.34466 5.58301L2.25579 3.49414C1.91408 3.15243 1.91408 2.59757 2.25579 2.25586ZM5.58587 6.82422C4.43986 8.24035 3.75189 10.0407 3.75189 12C3.7519 16.549 7.4529 20.25 12.0019 20.25C13.9186 20.25 15.7259 19.5632 17.1601 18.3984L15.2538 16.4922C15.0261 16.7997 14.662 17 14.2499 17C13.5596 17 12.9999 16.4404 12.9999 15.75C12.9999 15.338 13.1994 14.9728 13.5068 14.7451L5.58587 6.82422Z" fill="black"/>
<path d="M12.0019 1.99902C12.5579 1.99902 13.1281 2.05216 13.7431 2.16016C14.173 2.23619 14.4816 2.61491 14.4658 3.05176C14.4648 3.08263 14.4542 3.19116 14.4501 3.22266C14.4501 5.06666 15.8462 6.70126 17.6982 6.98926C17.9721 7.03131 18.2089 7.20135 18.3378 7.44629L18.6923 8.12012C18.8282 8.37908 18.8264 8.68838 18.6865 8.94531C18.3815 9.5073 18.2255 10.1112 18.2255 10.7412C18.2256 12.3691 19.2721 13.8234 20.829 14.3594C21.052 14.4354 21.2339 14.5995 21.3349 14.8135C21.4348 15.0264 21.4462 15.2713 21.3632 15.4922C21.1403 16.0871 20.858 16.6478 20.5351 17.1787L19.248 15.8916C19.295 15.8037 19.3544 15.7247 19.3984 15.6348C17.6194 14.6668 16.4756 12.8011 16.4755 10.7412C16.4755 10.0023 16.6212 9.28825 16.9072 8.6123C14.6302 8.03732 12.9744 6.11907 12.7314 3.78613C12.4814 3.76213 12.2389 3.75 12.0019 3.75C10.5889 3.75002 9.25765 4.10832 8.09368 4.7373L6.82025 3.46289C8.33416 2.54 10.104 1.99905 12.0019 1.99902Z" fill="black"/>
<path d="M10.7499 7C11.4399 7 11.9999 7.56 11.9999 8.25C11.9999 8.366 11.9645 8.47015 11.9345 8.57715L10.4228 7.06641C10.5288 7.03641 10.634 7.00002 10.7499 7Z" fill="black"/>
</svg>

<!-- This Source Code Form is subject to the terms of the Mozilla Public
   - License, v. 2.0. If a copy of the MPL was not distributed with this
   - file, You can obtain one at http://mozilla.org/MPL/2.0/. -->
<svg xmlns="http://www.w3.org/2000/svg" width="24" height="24" fill="none" viewBox="0 0 24 24">
    <path fill="#000" d="M8.5 12.25a1.5 1.5 0 1 1 0 3 1.5 1.5 0 0 1 0-3" />
    <path fill="#000" fill-rule="evenodd" d="M2.256 2.256a.876.876 0 0 1 1.238 0l18.25 18.25a.876.876 0 0 1-1.238 1.238l-2.097-2.096A9.98 9.98 0 0 1 12.003 22c-5.514 0-10-4.486-10-10 0-2.442.882-4.68 2.342-6.417l-2.09-2.089a.876.876 0 0 1 0-1.238m3.33 4.568A8.2 8.2 0 0 0 3.752 12c0 4.549 3.7 8.25 8.25 8.25a8.2 8.2 0 0 0 5.158-1.852l-1.906-1.906a1.25 1.25 0 1 1-1.747-1.747z" clip-rule="evenodd" />
    <path fill="#000" d="M12.002 1.999a10 10 0 0 1 1.741.161c.43.076.739.455.723.892-.001.03-.012.14-.016.17 0 1.845 1.396 3.48 3.248 3.767.274.042.51.212.64.457l.354.674a.88.88 0 0 1-.006.825 3.7 3.7 0 0 0-.46 1.796 3.84 3.84 0 0 0 2.603 3.618.87.87 0 0 1 .534 1.133 10 10 0 0 1-.828 1.687l-1.287-1.287c.047-.088.106-.167.15-.257a5.58 5.58 0 0 1-2.922-4.894c0-.739.145-1.453.431-2.129a5.55 5.55 0 0 1-4.176-4.826 8 8 0 0 0-.73-.036 8.2 8.2 0 0 0-3.907.987L6.82 3.463a9.9 9.9 0 0 1 5.182-1.464" />
    <path fill="#000" d="M10.75 7c.69 0 1.25.56 1.25 1.25 0 .116-.036.22-.066.327l-1.511-1.51c.106-.03.211-.067.327-.067" />
</svg>
